lib/brands/icons/basecamp.svg

<svg xmlns="http://www.w3.org/2000/svg" fill="none" aria-hidden="true" viewBox="0 0 48 48"><g id="basecamp-Icon"><path id="bg" fill="white" d="M24 3C12.4172 3 3 12.4172 3 24C3 35.5828 12.4172 45 24 45C35.5828 45 45 35.5828 45 24C45 12.4172 35.5828 3 24 3Z"/><g id="basecamp"><path id="vector" fill="#B3DCFF" d="M24.0033 9C15.1205 9 8.16788 20.7015 7.5 30.5842C10.2851 35.5912 17.0106 37.5 24.0033 37.5C30.9961 37.5 37.7149 35.6189 40.5 30.5842C39.8388 20.7015 32.8795 9 24.0033 9Z"/><path id="vector_2" fill="#5ECC62" d="M34.282 21.2895C32.3318 18.6822 29.8473 15.9159 28.4046 15.9159C26.962 15.9159 22.9347 23.302 21.058 23.302C19.1812 23.302 18.2462 19.9409 15.9754 19.9547C12.8764 19.9547 9.84424 29.3948 9.84424 29.3948C9.84424 29.3948 11.0999 35.1556 24.2304 35.1556C37.3609 35.1556 38.4095 29.4916 38.4095 29.4916C37.4563 26.5509 36.0636 23.7832 34.282 21.2895V21.2895Z"/><path id="vector_3" fill="black" d="M16.9639 28.6062C16.9639 28.2656 17.0614 27.9327 17.2441 27.6495C17.4269 27.3663 17.6866 27.1456 17.9905 27.0152C18.2944 26.8849 18.6287 26.8508 18.9513 26.9172C19.2739 26.9837 19.5702 27.1477 19.8028 27.3885C20.0354 27.6294 20.1938 27.9362 20.258 28.2702C20.3221 28.6043 20.2892 28.9505 20.1633 29.2652C20.0375 29.5798 19.8243 29.8488 19.5508 30.038C19.2773 30.2272 18.9558 30.3282 18.6269 30.3282C18.1858 30.3282 17.7628 30.1468 17.451 29.8239C17.1391 29.5009 16.9639 29.0629 16.9639 28.6062ZM27.7101 28.6062C27.7101 28.9468 27.8076 29.2797 27.9903 29.5629C28.1731 29.8461 28.4328 30.0668 28.7367 30.1971C29.0406 30.3275 29.3749 30.3616 29.6975 30.2951C30.0201 30.2287 30.3165 30.0647 30.549 29.8239C30.7816 29.583 30.94 29.2762 31.0042 28.9421C31.0683 28.6081 31.0354 28.2619 30.9095 27.9472C30.7837 27.6325 30.5705 27.3636 30.297 27.1744C30.0235 26.9852 29.702 26.8842 29.3731 26.8842C29.1547 26.8842 28.9385 26.9287 28.7367 27.0152C28.5349 27.1018 28.3516 27.2286 28.1972 27.3885C28.0427 27.5484 27.9202 27.7383 27.8367 27.9472C27.7531 28.1561 27.7101 28.38 27.7101 28.6062V28.6062ZM27.4095 31.1305C27.4589 31.0074 27.462 30.8697 27.4182 30.7445C27.3743 30.6192 27.2867 30.5156 27.1727 30.4539C27.0586 30.3922 26.9264 30.3771 26.8021 30.4114C26.6778 30.4458 26.5704 30.5271 26.5012 30.6394C26.2383 31.0626 25.8717 31.406 25.4387 31.6344C25.0057 31.8629 24.5219 31.9682 24.0367 31.9396C23.538 31.9516 23.0441 31.8368 22.5982 31.6053C22.1522 31.3738 21.7679 31.0327 21.4787 30.6118C21.4027 30.5036 21.2902 30.429 21.1635 30.4029C21.0367 30.3768 20.9052 30.4009 20.7949 30.4707C20.6847 30.5404 20.6038 30.6505 20.5684 30.7792C20.533 30.9079 20.5456 31.0456 20.6038 31.165C20.9849 31.7407 21.4981 32.2095 22.0972 32.5294C22.6963 32.8492 23.3628 33.0102 24.0367 32.9977C24.709 33.0288 25.377 32.8718 25.9705 32.5433C26.564 32.2147 27.0611 31.7267 27.4095 31.1305V31.1305Z"/><path id="vector_4" fill="#00AD45" d="M21.2918 26.4694C19.2547 26.4694 18.2061 24.3947 17.6384 23.1014C17.1309 21.9465 17.0373 20.1138 15.5947 20.0654C15.7239 20.0093 15.8621 19.9788 16.0021 19.9755C18.2729 19.9755 19.2347 23.3227 21.0847 23.3227C22.9347 23.3227 26.9687 15.9159 28.4047 15.9159C28.7242 15.9335 29.0352 16.0282 29.313 16.1925C29.1704 16.1647 29.0236 16.1721 28.8843 16.2142C28.745 16.2563 28.6173 16.3318 28.5115 16.4346C28.0507 16.9256 23.8163 26.4694 21.2918 26.4694Z"/></g></g></svg>

<svg xmlns="http://www.w3.org/2000/svg" fill="none" aria-hidden="true" viewBox="0 0 48 48"><path fill="#fff" d="M24 3C12.417 3 3 12.417 3 24s9.417 21 21 21 21-9.417 21-21S35.583 3 24 3Z"/><path fill="#B3DCFF" d="M24.003 9C15.12 9 8.168 20.701 7.5 30.584c2.785 5.007 9.51 6.916 16.503 6.916s13.712-1.881 16.497-6.916C39.839 20.701 32.88 9 24.003 9Z"/><path fill="#5ECC62" d="M34.282 21.29c-1.95-2.608-4.435-5.374-5.877-5.374-1.443 0-5.47 7.386-7.347 7.386-1.877 0-2.812-3.361-5.083-3.347-3.099 0-6.13 9.44-6.13 9.44s1.255 5.76 14.385 5.76c13.13 0 14.18-5.663 14.18-5.663a30.044 30.044 0 0 0-4.128-8.203Z"/><path fill="#000" d="M16.964 28.606c0-.34.097-.673.28-.957.183-.283.443-.503.747-.634a1.61 1.61 0 0 1 .96-.098c.323.067.62.23.852.471.232.241.39.548.455.882.064.334.031.68-.095.995a1.71 1.71 0 0 1-.612.773 1.623 1.623 0 0 1-2.1-.214 1.754 1.754 0 0 1-.487-1.218Zm10.746 0c0 .34.098.674.28.957.183.283.443.504.747.634s.638.165.96.098c.323-.066.62-.23.852-.471.233-.241.391-.548.455-.882a1.78 1.78 0 0 0-.095-.995 1.71 1.71 0 0 0-.612-.773 1.623 1.623 0 0 0-2.1.215c-.154.16-.277.35-.36.558a1.774 1.774 0 0 0-.127.66Zm-.3 2.524a.55.55 0 0 0 .008-.386.528.528 0 0 0-.245-.29.499.499 0 0 0-.37-.043.516.516 0 0 0-.302.228c-.263.424-.63.767-1.062.995a2.665 2.665 0 0 1-1.402.306 2.965 2.965 0 0 1-1.439-.335 3.085 3.085 0 0 1-1.12-.993.5.5 0 0 0-.684-.141.53.53 0 0 0-.226.308.55.55 0 0 0 .036.386 4.124 4.124 0 0 0 1.493 1.364c.6.32 1.266.481 1.94.469a3.642 3.642 0 0 0 1.934-.455 3.806 3.806 0 0 0 1.439-1.412Z"/><path fill="#00AD45" d="M21.292 26.47c-2.037 0-3.086-2.075-3.654-3.369-.507-1.154-.6-2.987-2.043-3.036a1.1 1.1 0 0 1 .407-.09c2.27 0 3.233 3.348 5.083 3.348s5.884-7.407 7.32-7.407a2 2 0 0 1 .908.276.89.89 0 0 0-.801.243c-.461.49-4.696 10.034-7.22 10.034Z"/></svg>
